icons/mysql-logo.svg

<svg xmlns="http://www.w3.org/2000/svg" width="256" height="256" fill="none" viewBox="0 0 256 256"><rect width="256" height="256" fill="#F4F2ED" rx="60"/><g clip-path="url(#clip0_7_150)"><path fill="#00678C" fill-rule="evenodd" d="M203.801 178.21C194.011 177.938 186.416 178.941 180.051 181.619C178.218 182.355 175.277 182.355 175.035 184.662C176.015 185.63 176.133 187.214 176.992 188.556C178.459 190.991 181.033 194.271 183.357 195.973L191.191 201.571C195.965 204.488 201.351 206.193 206.002 209.113C208.696 210.817 211.388 213.007 214.082 214.834C215.454 215.807 216.285 217.392 218 217.997V217.629C217.144 216.538 216.897 214.957 216.044 213.735L212.367 210.209C208.82 205.465 204.41 201.325 199.636 197.922C195.718 195.245 187.152 191.596 185.56 187.097L185.319 186.824C188.008 186.552 191.191 185.605 193.764 184.875C197.929 183.784 201.721 184.024 206.002 182.93L211.882 181.226V180.135C209.678 177.946 208.087 175.025 205.763 172.959C199.521 167.606 192.661 162.373 185.56 157.994C181.766 155.562 176.868 153.977 172.829 151.913C171.356 151.182 168.911 150.817 168.055 149.601C165.846 146.929 164.625 143.397 163.034 140.232L152.997 119.064C150.794 114.319 149.444 109.574 146.755 105.195C134.144 84.5124 120.431 71.9828 99.375 59.6932C94.8477 57.1382 89.4616 56.0393 83.7353 54.7032L74.5546 54.2124C72.5928 53.3616 70.6364 51.0493 68.9216 49.9531C61.9441 45.5739 43.9475 36.0847 38.8029 48.5897C35.4966 56.4974 43.7006 64.2824 46.4855 68.299C48.5708 71.0966 51.2597 74.2597 52.7332 77.4228C53.5563 79.4897 53.8307 81.682 54.6895 83.8717C56.6458 89.2243 58.4842 95.1878 61.0551 100.178C62.427 102.733 63.8675 105.413 65.5824 107.723C66.5619 109.086 68.2768 109.67 68.6417 111.859C66.9268 114.294 66.8089 117.94 65.8293 120.986C61.42 134.734 63.1349 151.766 69.377 161.888C71.3389 164.928 75.9622 171.622 82.2345 169.065C87.744 166.875 86.5148 159.941 88.1062 153.857C88.4766 152.399 88.2297 151.425 88.9623 150.449V150.722L93.9834 160.819C97.7781 166.78 104.391 172.986 109.897 177.125C112.833 179.315 115.16 183.089 118.831 184.425V184.057H118.59C117.854 182.966 116.751 182.475 115.772 181.624C113.569 179.435 111.121 176.757 109.406 174.325C104.267 167.513 99.7399 159.968 95.6983 152.183C93.7365 148.412 92.0216 144.275 90.4357 140.504C89.6949 139.043 89.6949 136.85 88.4739 136.125C86.6355 138.797 83.9466 141.115 82.5939 144.398C80.2672 149.628 80.0257 156.077 79.1697 162.769C78.6758 162.891 78.8953 162.769 78.6758 163.041C74.7631 162.071 73.4132 158.051 71.9453 154.648C68.274 146.01 67.6594 132.141 70.8422 122.164C71.6983 119.609 75.375 111.579 73.9071 109.146C73.1662 106.834 70.7242 105.498 69.3743 103.671C67.7829 101.359 66.0735 98.4409 64.9705 95.8859C62.0346 89.0689 60.5667 81.5293 57.3812 74.7151C55.9077 71.552 53.3396 68.2662 51.257 65.3486C48.9303 62.0628 46.3648 59.7505 44.5265 55.8593C43.9146 54.4959 43.0585 52.3309 44.0381 50.8693C44.2795 49.8959 44.7734 49.5059 45.7475 49.2878C47.3389 47.9244 51.8716 49.6532 53.463 50.3785C57.9903 52.2054 61.7849 53.907 65.5796 56.4592C67.2945 57.6754 69.1329 59.9877 71.3361 60.5985H73.9098C77.8279 61.4493 82.2317 60.8712 85.9002 61.9619C92.3893 64.0343 98.2637 67.0719 103.532 70.3604C119.567 80.4577 132.792 94.8143 141.725 111.971C143.193 114.769 143.805 117.324 145.155 120.244C147.729 126.208 150.912 132.289 153.477 138.132C156.051 143.85 158.498 149.694 162.17 154.438C164.008 156.993 171.35 158.329 174.654 159.668C177.104 160.759 180.896 161.741 183.105 163.077C187.264 165.632 191.427 168.552 195.342 171.35C197.298 172.806 203.423 175.849 203.787 178.276L203.801 178.21ZM78.9584 72.4873C77.267 72.4724 75.5809 72.6769 73.9427 73.0954V73.3681H74.1842C75.1637 75.315 76.8786 76.6538 78.1023 78.3581L80.9202 84.1989L81.1616 83.9262C82.8765 82.71 83.7353 80.7631 83.7353 77.8454C83 76.9947 82.8793 76.1412 82.2674 75.2904C81.5321 74.0743 79.9407 73.4635 78.9584 72.4928V72.4873Z" clip-rule="evenodd"/></g><defs><clipPath id="clip0_7_150"><rect width="180" height="180" fill="#fff" transform="translate(38 38)"/></clipPath></defs></svg>

<svg xmlns="http://www.w3.org/2000/svg" width="256" height="256" viewBox="0 0 256 256"><g fill="none"><rect width="256" height="256" fill="#242938" rx="60"/><g clip-path="url(#skillIconsMysqlDark0)"><path fill="#fff" fill-rule="evenodd" d="M203.801 178.21c-9.79-.272-17.385.731-23.75 3.409c-1.833.736-4.774.736-5.016 3.043c.98.968 1.098 2.552 1.957 3.894c1.467 2.435 4.041 5.715 6.365 7.417l7.834 5.598c4.774 2.917 10.16 4.622 14.811 7.542c2.694 1.704 5.386 3.894 8.08 5.721c1.372.973 2.203 2.558 3.918 3.163v-.368c-.856-1.091-1.103-2.672-1.956-3.894l-3.677-3.526c-3.547-4.744-7.957-8.884-12.731-12.287c-3.918-2.677-12.484-6.326-14.076-10.825l-.241-.273c2.689-.272 5.872-1.219 8.445-1.949c4.165-1.091 7.957-.851 12.238-1.945l5.88-1.704v-1.091c-2.204-2.189-3.795-5.11-6.119-7.176c-6.242-5.353-13.102-10.586-20.203-14.965c-3.794-2.432-8.692-4.017-12.731-6.081c-1.473-.731-3.918-1.096-4.774-2.312c-2.209-2.672-3.43-6.204-5.021-9.369l-10.037-21.168c-2.203-4.745-3.553-9.49-6.242-13.869c-12.611-20.683-26.324-33.212-47.38-45.502c-4.527-2.555-9.913-3.654-15.64-4.99l-9.18-.49c-1.962-.851-3.919-3.164-5.633-4.26c-6.978-4.38-24.974-13.868-30.12-1.363c-3.305 7.907 4.899 15.692 7.684 19.709c2.085 2.798 4.774 5.96 6.247 9.124c.823 2.067 1.098 4.259 1.957 6.449c1.956 5.352 3.794 11.316 6.365 16.306c1.372 2.555 2.813 5.235 4.527 7.545c.98 1.363 2.695 1.947 3.06 4.136c-1.715 2.435-1.833 6.081-2.813 9.127c-4.409 13.748-2.694 30.78 3.548 40.902c1.962 3.04 6.585 9.734 12.858 7.177c5.509-2.19 4.28-9.124 5.871-15.208c.37-1.458.124-2.432.856-3.408v.273l5.021 10.097c3.795 5.961 10.408 12.167 15.914 16.306c2.936 2.19 5.263 5.964 8.934 7.3v-.368h-.241c-.736-1.091-1.839-1.582-2.818-2.433c-2.203-2.189-4.651-4.867-6.366-7.299c-5.139-6.812-9.666-14.357-13.708-22.142c-1.961-3.771-3.676-7.908-5.262-11.679c-.741-1.461-.741-3.654-1.962-4.379c-1.839 2.672-4.527 4.99-5.88 8.273c-2.327 5.23-2.568 11.679-3.424 18.371c-.494.122-.275 0-.494.272c-3.913-.97-5.263-4.99-6.73-8.393c-3.672-8.638-4.287-22.507-1.104-32.484c.856-2.555 4.533-10.585 3.065-13.018c-.74-2.312-3.183-3.648-4.533-5.475c-1.591-2.312-3.3-5.23-4.403-7.785c-2.936-6.817-4.404-14.357-7.59-21.17c-1.473-3.164-4.041-6.45-6.124-9.367c-2.327-3.286-4.892-5.599-6.73-9.49c-.612-1.363-1.468-3.528-.489-4.99c.242-.973.735-1.363 1.71-1.581c1.59-1.364 6.124.365 7.715 1.09c4.527 1.827 8.322 3.529 12.117 6.081c1.715 1.216 3.553 3.529 5.756 4.14h2.574c3.918.85 8.322.272 11.99 1.363c6.49 2.072 12.364 5.11 17.632 8.398c16.035 10.098 29.26 24.454 38.193 41.611c1.468 2.798 2.08 5.353 3.43 8.273c2.574 5.964 5.757 12.045 8.322 17.888c2.574 5.718 5.021 11.562 8.693 16.306c1.838 2.555 9.18 3.891 12.484 5.23c2.45 1.091 6.242 2.073 8.451 3.409c4.159 2.555 8.322 5.475 12.237 8.273c1.956 1.456 8.081 4.499 8.445 6.926zM78.958 72.487a19.569 19.569 0 0 0-5.015.608v.273h.241c.98 1.947 2.695 3.286 3.918 4.99l2.818 5.84l.242-.272c1.714-1.216 2.573-3.163 2.573-6.08c-.735-.851-.856-1.705-1.468-2.556c-.735-1.216-2.326-1.827-3.309-2.797z" clip-rule="evenodd"/></g><defs><clipPath id="skillIconsMysqlDark0"><path fill="#fff" d="M38 38h180v180H38z"/></clipPath></defs></g></svg>
